X: 1783
T: Oyster Girls
C:trad English
B: australian traditional tunes wiki
M:6/8
L:1/8
R: Jig
Q: 3/8=100
K:G
V:1 
B|:"G"dedB2G|"D7"A2FD2D|"G"G2G GAB|"D7"d2cA2B|"G"dedB2d|\\
"C"g3c3|"G"edB "D7"dcA|1"G"G3-G2B:|2"G"G3-G2A||
"G"[D2B2][DB] [DB][DB][DB]|"G"[B2D2][DB][D2B2][DB]|"D7"c2B A2G|"D7"F2GA3|\\
"D7"[D2A2][DA] [DA][DA][DA]|"D7"[D2A2][DA][D2A2][DA]|"D7"d2d cBA|"A7"GFE "D7"D2B|
"G"dedB2G|"D7"A2F D2D|"G"G2G GAB|"D7"d2cA2B|"G"dedB2d|"C"g3c3|"G"edB "D7"dcA|"G"G3-G3||
% abcbook-tune_id 6342d53a612368839594abdf


% abcbook-boost 0
% abcbook-tablature 
% abcbook-transpose 
% abcbook-lastupdated 1665324383653
% abcbook-soundfonts 
% abcbook-repeats 1
% NFF Book 2015

